icons/svg/bike.svg

﻿<?xml version="1.0" encoding="utf-8"?>
<!DOCTYPE svg PUBLIC "-//W3C//DTD SVG 1.1//EN" "http://www.w3.org/Graphics/SVG/1.1/DTD/svg11.dtd">
<svg xmlns="http://www.w3.org/2000/svg" xmlns:xlink="http://www.w3.org/1999/xlink" version="1.1" baseProfile="full" width="24" height="24" viewBox="0 0 24.00 24.00" enable-background="new 0 0 24.00 24.00" xml:space="preserve">
	<path fill="#000000" fill-opacity="1" stroke-width="0.2" stroke-linejoin="round" d="M 4.9997,20.4981C 3.0667,20.4981 1.4997,18.9311 1.4997,16.9981C 1.4997,15.0651 3.0667,13.4981 4.9997,13.4981C 6.9327,13.4981 8.4997,15.0651 8.4997,16.9981C 8.4997,18.9311 6.9327,20.4981 4.9997,20.4981 Z M 4.9997,11.9981C 2.2377,11.9981 -0.00030009,14.2361 -0.00030009,16.9981C -0.00030009,19.7591 2.2377,21.9981 4.9997,21.9981C 7.7607,21.9981 9.9997,19.7591 9.9997,16.9981C 9.9997,14.2361 7.7607,11.9981 4.9997,11.9981 Z M 14.7997,9.99807L 18.9997,9.99807L 18.9997,8.19806L 15.7977,8.19806L 13.8637,4.93207C 13.5677,4.43207 13.0227,4.09807 12.3997,4.09807C 11.9307,4.09807 11.5057,4.28806 11.1977,4.59608L 7.5007,8.29307C 7.1917,8.60106 6.9997,9.02707 6.9997,9.49807C 6.9997,10.1271 7.3337,10.6591 7.8497,10.9697L 11.1997,12.9981L 11.1997,17.9981L 12.9997,17.9981L 12.9997,11.5201L 10.7497,9.84807L 13.0697,7.51807M 18.9997,20.4981C 17.0667,20.4981 15.4997,18.9311 15.4997,16.9981C 15.4997,15.0651 17.0667,13.4981 18.9997,13.4981C 20.9327,13.4981 22.4997,15.0651 22.4997,16.9981C 22.4997,18.9311 20.9327,20.4981 18.9997,20.4981 Z M 18.9997,11.9981C 16.2377,11.9981 13.9997,14.2361 13.9997,16.9981C 13.9997,19.7591 16.2377,21.9981 18.9997,21.9981C 21.7607,21.9981 23.9997,19.7591 23.9997,16.9981C 23.9997,14.2361 21.7607,11.9981 18.9997,11.9981 Z M 15.9997,4.79807C 16.9917,4.79807 17.7997,3.99106 17.7997,2.99807C 17.7997,2.00507 16.9917,1.19806 15.9997,1.19806C 15.0047,1.19806 14.1997,2.00507 14.1997,2.99807C 14.1997,3.99106 15.0047,4.79807 15.9997,4.79807 Z "/>
</svg>

<svg xmlns="http://www.w3.org/2000/svg" version="1.1" baseProfile="full" width="24" height="24" viewBox="0 0 24.00 24.00" xml:space="preserve"><path fill="#000" fill-opacity="1" stroke-width=".2" stroke-linejoin="round" d="M5 20.498c-1.933 0-3.5-1.567-3.5-3.5s1.567-3.5 3.5-3.5 3.5 1.567 3.5 3.5-1.567 3.5-3.5 3.5zm0-8.5c-2.762 0-5 2.238-5 5 0 2.76 2.238 5 5 5 2.76 0 5-2.24 5-5 0-2.762-2.24-5-5-5zm9.8-2H19v-1.8h-3.202l-1.934-3.266c-.296-.5-.84-.834-1.464-.834-.47 0-.894.19-1.202.498L7.5 8.293c-.308.308-.5.734-.5 1.205 0 .63.334 1.16.85 1.472l3.35 2.028v5H13V11.52l-2.25-1.672 2.32-2.33M19 20.498c-1.933 0-3.5-1.567-3.5-3.5s1.567-3.5 3.5-3.5 3.5 1.567 3.5 3.5-1.567 3.5-3.5 3.5zm0-8.5c-2.762 0-5 2.238-5 5 0 2.76 2.238 5 5 5 2.76 0 5-2.24 5-5 0-2.762-2.24-5-5-5zm-3-7.2c.992 0 1.8-.807 1.8-1.8s-.808-1.8-1.8-1.8c-.995 0-1.8.807-1.8 1.8s.805 1.8 1.8 1.8z"/></svg>
